X: 27172
T: Miss Michelle Grehan's Farewell To Her Degree
R: reel
M: 4/4
K: Amajor
|:A3a feef|ecce c2BA|d3e faaf|ecBc BAFA|
A3a feef|ecce c2BA|d3e faaf|1 ecBc A4:|2 ecBc A3B||
|:c3A BAcB|AeeA cBAB|c3A dAcA|EGAB cBAB|
c3A BAcB|AeeA cBAB|A3a feef|1 ecBc A3B:|2 ecBc A4||

